X: 581
U:~=!turn!
M:C
L:1/8
K:B aeolian
(D3 F) A/2A/2A A>F | A>B{Bc}d>A F/2F/2F (FD) | G>BG>B F>AF>A | {/F}E>DE>F B/2B/2B B :|
c | (d2 d)>f d/2d/2d (d>A) | B>A{/c}d>A F/2F/2F (F>D) | (e3 f) e/2e/2e (e>f) | {ef}g>fe>d B/2B/2B (B<e) |
(d2 d)>f d/2d/2d (d>A) | B>A{/c}d>A F/2F/2F (F>D) | G>BG>B F>AF>A | {/F}E>DE>F B/2B/2B B |]


